**kern	**silbe	**kern	**silbe
*ICvox	*	*ICvox	*
=1	=1	=1	=1
*C:	*	*C:	*
*M4/4	*	*M4/4	*
*clefG2	*	*clefC3	*
4g	Freeze	1r	.
4e	frame	.	.
r;	!	.	.
=2	=2	=2	=2
1r	.	1r	.
=3	=3	=3	=3
1r	.	1r	.
=4	=4	=4	=4
1r	.	1r	.
=5	=5	=5	=5
1r	.	1r	.
=6	=6	=6	=6
1r	.	1r	.
=7	=7	=7	=7
1r	.	1r	.
=8	=8	=8	=8
1r	.	1r	.
=9	=9	=9	=9
1r	.	1r	.
=10	=10	=10	=10
1r	.	1r	.
=11	=11	=11	=11
1r	.	1r	.
=12	=12	=12	=12
1r	.	1r	.
=13	=13	=13	=13
1r	.	1r	.
=14	=14	=14	=14
1r	.	1r	.
=15	=15	=15	=15
1r	.	1r	.
=16	=16	=16	=16
1r	.	1r	.
=17	=17	=17	=17
1r	.	1r	.
=18	=18	=18	=18
*clefC3	*	*	*
4r	.	4r	.
8c	I	8e	I
8B-	could	8d	could
8c	see	8e	see
8c	it	8e	it
8c	was	8e	was
8c	a	8e	a
=19	=19	=19	=19
4e	rough-	4g	rough-
4c	-cut	4e	-cut
4B-	Tues-	4d	Tues-
4c	-day	4e	-day
=20	=20	=20	=20
4r	,	4r	,
4B-	slow	4d	slow
4B-	mo-	4d	mo-
8c	-tion	8e-	-tion
[8e-	week	[8g	week
=21	=21	=21	=21
8e-]	_	8g]	_
4.d	days	4.f	days
4c	stare	4e-	stare
8A	me	8d	me
[8c	down	[8e	down
=22	=22	=22	=22
4.c]	_	4.e]	_
8A	_	8d	_
2G	_	2c	_
=23	=23	=23	=23
1r	.	1r	.
=24	=24	=24	=24
4r	.	4r	.
4B-	Her	4d	Her
4B-	lip-	4d	lip-
4c	-stick	4e-	-stick
=25	=25	=25	=25
4e-	re-	4g	re-
4d	-flex	4f	-flex
4c	got	4e-	got
8B-	me	8d	me
[8c	wound	[8e	wound
=26	=26	=26	=26
4.c]	_	4.e]	_
8A	_	8d	_
2G	_	2c	_
=27	=27	=27	=27
1r	.	1r	.
=28	=28	=28	=28
4r	.	4r	.
4B-	There	4d	There
4B-	were	4d	were
4c	no	4e-	no
=29	=29	=29	=29
8e-	de-	8g	de-
4.d	-fects	4.f	-fects
4c	in	4e-	in
8A	the	8d	the
[8c	sound	[8e	sound
=30	=30	=30	=30
4.c]	_	4.e]	_
8A	_	8d	_
2G	_	2c	_
=31	=31	=31	=31
1r	.	1r	.
=32	=32	=32	=32
4B-	Snap-	4d	Snap-
4B-	-shot	4d	-shot
8B-	i-	8d	i-
4c	-mage	4e-	-mage
dq	_	fq	_
[8e-	froze	[8g	froze
=33	=33	=33	=33
4.e-]	_	4.g]	_
8d	with-	8f	with-
4c	-out	4e-	-out
8B-	a	8d	a
B-q	_	[8d	sound
[8B	sound	.	.
=34	=34	=34	=34
1B_	_	1d_	_
=35	=35	=35	=35
2B_	_	2d_	_
8B]	_	8d]	_
8A	_	8c	_
4G	_	4B	_
=36	=36	=36	=36
1A	_	1c	_
=37	=37	=37	=37
1r	.	1r	.
=38	=38	=38	=38
1r	.	1r	.
=39	=39	=39	=39
1r	.	1r	.
=40	=40	=40	=40
1r	.	1r	.
=41	=41	=41	=41
1r	.	1r	.
=42	=42	=42	=42
4r	.	4r	.
8c	Thurs-	8e	Thurs-
8c	-day	8e	-day
8c	mor-	8e	mor-
8c	-ning	8e	-ning
8c	was	8e	was
8c	a	8e	a
=43	=43	=43	=43
dq	_	4g	hot
4e-	hot	.	.
4c	flash	4e	flash
4B-	fac-	4d	fac-
4c	-tor	4e	-tor
=44	=44	=44	=44
4r	,	4r	,
4B-	her	4d	her
4B-	face	4d	face
4c	still	4e-	still
=45	=45	=45	=45
8e-	fo-	8g	fo-
4.d	-cused	4.f	-cused
4c	in	4e-	in
4A	my	4c	my
=46	=46	=46	=46
Aq	mind	dq	mind
4.c	_	4.e	_
8A	_	8d	_
2G	_	2c	_
=47	=47	=47	=47
1r	.	4r	.
.	.	8c e	Dee-
.	.	8c e	-dle
.	.	8c e	lee-
.	.	8c e	-dle
.	.	4c e	lee!
=48	=48	=48	=48
4B-	Test	4d	Test
4B-	strip	4d	strip
4B-	proof	4d	proof
8c	sheet	8e-	sheet
dq	_	fq	_
[8e-	love	[8g	love
=49	=49	=49	=49
4e-]	_	4g]	_
4d	is	4f	is
4c	hard	4e-	hard
8B-	to	8d	to
Aq	_	dq	_
[8c	find	[8e	find
=50	=50	=50	=50
4.c]	_	4.e]	_
8A	_	8d	_
2G	_	2c	_
=51	=51	=51	=51
1r	.	4r	.
.	.	8c e	Dee-
.	.	8c e	-dle
.	.	8c e	lee-
.	.	8c e	-dle
.	.	4c e	lee!
=52	=52	=52	=52
4B-	Fri-	4d	Fri-
8B-	-day	8d	-day
[8B-	night	[8d	night
4B-]	,	4d]	,
8c	we'll	8e-	we'll
dq	_	fq	_
[8e-	dance	[8g	dance
=53	=53	=53	=53
4e-]	_	4g]	_
4d	the	4f	the
4c	spot-	4e-	spot-
4A	-light	4c	-light
=54	=54	=54	=54
4.c	grind	4.e	grind
8A	_	8d	_
2G	_	2c	_
=55	=55	=55	=55
1r	.	4r	.
.	.	8c e	Dee-
.	.	8c e	-dle
.	.	8c e	lee-
.	.	8c e	-dle
.	.	4c e	lee!
=56	=56	=56	=56
4B-	Stop	4d	Stop
4B-	time	4d	time
4B-	heart	4d	heart
8c	for	8e-	for
dq	_	fq	_
8e-	me	8g	me
=57	=57	=57	=57
8d	,	8f	,
4.d	if	4.f	if
4c	she's	4e-	she's
4A	not	4d	not
=58	=58	=58	=58
[1B	mine	[1d	mine
=59	=59	=59	=59
2B_	_	2d_	_
8B]	_	8d]	_
8A	_	8c	_
4G	_	4B	_
=60	=60	=60	=60
[2A	_	[2c	_
8A]	_	8c]	_
8r	!	8r	!
4r	.	4r	.
=61	=61	=61	=61
1r	.	1r	.
=62	=62	=62	=62
1r	.	1r	.
=63	=63	=63	=63
1r	.	1r	.
=64	=64	=64	=64
1r	.	1r	.
=65	=65	=65	=65
1r	.	1r	.
=66	=66	=66	=66
2r	.	4g	Freeze
.	.	4e	frame
4c	Freeze	2r	!
4A	frame	.	.
=67	=67	=67	=67
2r	!	4g	Freeze
.	.	4e	frame
4c	Freeze	2r	!
dq	_	.	.
4e-	frame	.	.
=68	=68	=68	=68
*clefG2	*	*	*
2r	!	4g	Freeze
.	.	4e	frame
gq	_	2r	!
4bb-	Freeze	.	.
4d-	frame!	.	.
=69	=69	=69	=69
*clefC3	*	*clefG2	*
2r	.	4g	Freeze
.	.	4e	frame,
8r	.	2bb-	woo!
8c	N-	.	.
dq	_	.	.
4e-	-now,	.	.
=70	=70	=70	=70
4d	freeze	1r	.
4r	!	.	.
2r	.	.	.
=71	=71	=71	=71
1r	.	1r	.
=72	=72	=72	=72
*	*	*clefC3	*
4r	.	4r	.
8c	Now	8e	Now
8c	I'm	8e	I'm
8c	loo-	8e	loo-
8c	-king	8e	-king
8c	at	8e	at
8c	a	8e	a
=73	=73	=73	=73
dq	_	4g	flash-
4e-	flash-	.	.
4c	-back	4e	-back
4B-	Sun-	4d	Sun-
4c	-day,	4e	-day,
=74	=74	=74	=74
4B-	zoom	4d	zoom
4B-	lens	4d	lens
8B-	fee-	8d	fee-
8B-	-l-	8d	-l-
4c	-ings	4e-	-ings
=75	=75	=75	=75
dq	_	fq	_
4e-	just	4g	just
4d	won't	4f	won't
4c	dis-	4e-	dis-
8A	-ap-	8c	-ap-
[8c	-pear	[8e	-pear
=76	=76	=76	=76
Aq	_	dq	_
4.c	_	4.e	_
8A	_	8d	_
2G	_	2c	_
=77	=77	=77	=77
1r	.	4r	.
.	.	8c e	_
.	.	8c e	_
.	.	8c e	_
.	.	8c e	_
.	.	4c e	_
=78	=78	=78	=78
4B-	Close	4d	Close
4B-	up,	4d	up,
4B-	dark	4d	dark
4B-	room	4e-	room
=79	=79	=79	=79
4e-	sweet	4g	sweet
4d	talk	4f	talk
4c	in	4e-	in
4A	my	4c	my
=80	=80	=80	=80
4.c	ear	4.e	ear
8A	_	8d	_
2G	_	2c	_
=81	=81	=81	=81
1r	.	4r	.
.	.	8c e	_
.	.	8c e	_
.	.	8c e	_
.	.	8c e	_
.	.	4c e	_
=82	=82	=82	=82
4r	.	4r	.
4B-	Her	4d	Her
4B-	hot	4d	hot
4c	spot	4d-	spot
=83	=83	=83	=83
4f	love	4g	love
8d	for	8f	for
[8c	me	[8e-	me
4c]	_	4e-]	_
4A	is	4c	is
=84	=84	=84	=84
4.c	strong	4.e	strong
8A	_	8d	_
2G	_	2c	_
=85	=85	=85	=85
1r	.	4r	.
.	.	8c e	_
.	.	8c e	_
.	.	8c e	_
.	.	8c e	_
.	.	4c e	_
=86	=86	=86	=86
4r	.	4r	.
4B-	This	4d	This
4B-	freeze-	4d	freeze-
4c	-frame	4e-	-frame
=87	=87	=87	=87
4e-	mo-	4g	mo-
4d	-ment	4f	-ment
4c	can't	4e-	can't
4B-	be	4c	be
=88	=88	=88	=88
[1B	wrong	[1d	wrong
=89	=89	=89	=89
2B_	_	2d_	_
8B]	_	8d]	_
8A	_	8c	_
4G	_	4B	_
=90	=90	=90	=90
[2A	_	[2c	_
8A]	_	8c]	_
8r	.	8r	.
4r	.	4r	.
=91	=91	=91	=91
1r	.	1r	.
=92	=92	=92	=92
1r	.	1r	.
=93	=93	=93	=93
1r	.	1r	.
=94	=94	=94	=94
1r	.	1r	.
=95	=95	=95	=95
1r	.	1r	.
=96	=96	=96	=96
2r	.	4g	Freeze
.	.	4e	frame
4c	Freeze	2r	!
4A	frame	.	.
=97	=97	=97	=97
2r	!	4g	Freeze
.	.	4e	frame
4e-	Freeze	2r	!
dq	_	.	.
[4e-	frame	.	.
=98	=98	=98	=98
4e	_	4g	Freeze
4r	!	4e	frame
gq	_	2r	!
4bb-	Freeze	.	.
4d-	frame!	.	.
=99	=99	=99	=99
2r	.	4g	Freeze
.	.	4e	frame,
8r	.	2bb-	woo!
8c	N-	.	.
dq	_	.	.
4e-	-now,	.	.
=100	=100	=100	=100
4d	freeze	1r	.
4r	!	.	.
2r	.	.	.
=101	=101	=101	=101
1r	.	1r	.
=102	=102	=102	=102
1r	.	1r	.
=103	=103	=103	=103
1r	.	1r	.
=104	=104	=104	=104
1r	.	1r	.
=105	=105	=105	=105
1r	.	1r	.
=106	=106	=106	=106
1r	.	1r	.
=107	=107	=107	=107
1r	.	1r	.
=108	=108	=108	=108
1r	.	1r	.
=109	=109	=109	=109
1r	.	1r	.
=110	=110	=110	=110
1r	.	1r	.
=111	=111	=111	=111
1r	.	1r	.
=112	=112	=112	=112
1r	.	1r	.
=113	=113	=113	=113
1r	.	1r	.
=114	=114	=114	=114
4c e	Shoot	1r	.
4r	!	.	.
4c e	Shoot	.	.
4r	!	.	.
=115	=115	=115	=115
4r	.	1r	.
8c e	Dee-	.	.
8c e	-dle	.	.
8c e	lee-	.	.
8c e	-dle	.	.
4c e	lee!	.	.
=116	=116	=116	=116
1r	.	1r	.
=117	=117	=117	=117
1r	.	1r	.
=118	=118	=118	=118
4c e	Shoot	1r	.
4r	!	.	.
4c e	Shoot	.	.
4r	!	.	.
=119	=119	=119	=119
4r	.	1r	.
8c e	Dee-	.	.
8c e	-dle	.	.
8c e	lee-	.	.
8c e	-dle	.	.
4c e	lee!	.	.
=120	=120	=120	=120
1r	.	1r	.
=121	=121	=121	=121
1r	.	1r	.
=122	=122	=122	=122
4c e	Shoot	1r	.
4r	!	.	.
4c e	Shoot	.	.
4r	!	.	.
=123	=123	=123	=123
4r	.	1r	.
8c e	Dee-	.	.
8c e	-dle	.	.
8c e	lee-	.	.
8c e	-dle	.	.
4c e	lee!	.	.
=124	=124	=124	=124
1r	.	1r	.
=125	=125	=125	=125
1r	.	1r	.
=126	=126	=126	=126
1r	.	1r	.
=127	=127	=127	=127
1r	.	1r	.
=128	=128	=128	=128
1r	.	1r	.
=129	=129	=129	=129
1r	.	1r	.
=130	=130	=130	=130
1r	.	1r	.
=131	=131	=131	=131
1r	.	1r	.
=132	=132	=132	=132
1r	.	1r	.
=133	=133	=133	=133
1r	.	1r	.
=134	=134	=134	=134
2r	.	4g	Freeze
.	.	4e	frame
4c	Freeze	2r	!
[4A	frame	.	.
=135	=135	=135	=135
4A]	_	4g	Freeze
4r	!	4e	frame
4c e-	Freeze	2r	!
dq f#	_	.	.
4e- g	frame	.	.
=136	=136	=136	=136
2r	!	4g	Freeze
.	.	4e	frame
gq	_	2r	!
4bb-	Freeze	.	.
4d-	frame	.	.
=137	=137	=137	=137
2r	!	4g	Freeze
.	.	4e	frame,
8r	.	2bb-	woo!
8c	N-	.	.
dq	_	.	.
4e-	-now,	.	.
=138	=138	=138	=138
1d	freeze!	1r	.
=139	=139	=139	=139
1r	.	1r	.
=140	=140	=140	=140
1r	.	1r	.
=141	=141	=141	=141
1r	.	1r	.
=142	=142	=142	=142
1r	.	1r	.
=143	=143	=143	=143
1r	.	1r	.
=144	=144	=144	=144
1r	.	1r	.
=145	=145	=145	=145
1r	.	1r	.
=146	=146	=146	=146
1a-	Yeah!	1r	.
=147	=147	=147	=147
1r	.	1r	.
=148	=148	=148	=148
1r	.	4c e	Freeze
.	.	4c e	frame
.	.	2r	!
=149	=149	=149	=149
4r	.	1r	.
8e	Oh,	.	.
[8d	yeah	.	.
16d]	_	.	.
[8.c	_	.	.
4c]	!	.	.
=150	=150	=150	=150
1r	.	4d f b-	Freeze
.	.	[4d [f [b-	frame
.	.	8d] f] b-]	_
.	.	8e g cc	_
.	.	4d f b-	_
=151	=151	=151	=151
1r	.	2c f a	_
.	.	8r	!
.	.	8A	It's
.	.	8A	time
.	.	8A	to
=152	=152	=152	=152
2r	.	4c e	Freeze
.	.	4c e	frame
d#q	_	2r	!
4e	Freeze	.	.
[4c	frame	.	.
=153	=153	=153	=153
2c_	_	1r	.
8c]	_	.	.
8A	_	.	.
4r	!	.	.
=154	=154	=154	=154
1r	.	4d f b-	Freeze
.	.	[4d [f [b-	frame
.	.	8d] f] b-]	_
.	.	8e g cc	_
.	.	4d f b-	_
=155	=155	=155	=155
2r	.	2c f a	_
8r	.	8r	!
8A	It's	8A	It's
8e	like	8A	time
8c	a	8A	to
=156	=156	=156	=156
4c	freeze	4c e	Shoot
4r	,	4r	,
4c	freeze	4c e	shoot
4r	,	4r	,
=157	=157	=157	=157
4c	freeze	4r	.
4r	,	8c e	dee-
.	.	8c e	-dle
2aa-	woo!	8c e	lee-
.	.	8c e	-dle
.	.	4c e	lee!
=158	=158	=158	=158
1r	.	4d f b-	Freeze
.	.	[4d [f [b-	frame
.	.	8d] f] b-]	_
.	.	8e g cc	_
.	.	4d f b-	_
=159	=159	=159	=159
2r	.	2c f a	_
8r	.	8r	!
8A	It's	8A	It's
8e	like	8A	time
8c	a	8A	to
=160	=160	=160	=160
4c	freeze	4c e	Shoot
4r	,	4r	,
4c	freeze	4c e	shoot
4r	,	4r	,
=161	=161	=161	=161
*clefG2	*	*	*
[1gg	ah	4r	.
.	.	8c e	dee-
.	.	8c e	-dle
.	.	8c e	lee-
.	.	8c e	-dle
.	.	4c e	lee!
=162	=162	=162	=162
1gg_	_	4d f b-	Freeze
.	.	[4d [f [b-	frame
.	.	8d] f] b-]	_
.	.	8e g cc	_
.	.	4d f b-	_
=163	=163	=163	=163
1gg_	_	2c f a	_
.	.	8r	!
.	.	8A	It's
.	.	8A	time
.	.	8A	to
=164	=164	=164	=164
1gg_	_	4c e	Shoot
.	.	4r	,
.	.	4c e	shoot
.	.	4r	,
=165	=165	=165	=165
2.gg]	_	4r	.
.	.	8c e	dee-
.	.	8c e	-dle
.	.	8c e	lee-
.	.	8c e	-dle
[4cc	_	4c e	lee!
=166	=166	=166	=166
4.cc]	_	4d f b-	Freeze
.	.	[4d [f [b-	frame
8r	!	.	.
2r	.	8d] f] b-]	_
.	.	8e g cc	_
.	.	4d f b-	_
=167	=167	=167	=167
1r	.	2c f a	_
.	.	8r	!
.	.	8A	It's
.	.	8A	time
.	.	8A	to
=168	=168	=168	=168
1r	.	4c e	Shoot
.	.	4r	,
.	.	4c e	shoot
.	.	4r	,
=169	=169	=169	=169
1r	.	4r	.
.	.	8c e	dee-
.	.	8c e	-dle
.	.	8c e	lee-
.	.	8c e	-dle
.	.	4c e	lee!
=170	=170	=170	=170
1r	.	4d f b-	Freeze
.	.	[4d [f [b-	frame
.	.	8d] f] b-]	_
.	.	8e g cc	_
.	.	4d f b-	_
=171	=171	=171	=171
1r	.	1c; f a	!
*-	*-	*-	*-
!!!ENC: Nathaniel Condit-Schultz